public/primaries/Feed.svg

<svg id="Layer_1" data-name="Layer 1" xmlns="http://www.w3.org/2000/svg" width="64" height="64" viewBox="0 0 64 64"><defs><style>.cls-1{fill-rule:evenodd}</style></defs><title>Icons 200</title><path class="cls-1" d="M49 54H15a5 5 0 0 1-5-5V15a5 5 0 0 1 5-5h34a5 5 0 0 1 5 5v34a5 5 0 0 1-5 5zM22 15a1 1 0 0 0-1-1h-6a1 1 0 0 0-1 1v6a1 1 0 0 0 1 1h6a1 1 0 0 0 1-1v-6zm27 0H27a1 1 0 1 0 0 2h22a1 1 0 1 0 0-2zm-23 5a1 1 0 0 0 1 1h14a1 1 0 0 0 0-2H27a1 1 0 0 0-1 1zm24 7a1 1 0 0 0-1-1H15a1 1 0 0 0-1 1v22a1 1 0 0 0 1 1h34a1 1 0 0 0 1-1V27z"/></svg>

<svg id="Layer_1" data-name="Layer 1" xmlns="http://www.w3.org/2000/svg" width="64" height="64" viewBox="0 0 64 64">
  <defs>
    <style>
      .cls-1 {
        fill-rule: evenodd;
      }
    </style>
  </defs>
  <title>Icons 200</title>
  <path class="cls-1" d="M49,54H15a5,5,0,0,1-5-5V15a5,5,0,0,1,5-5H49a5,5,0,0,1,5,5V49A5,5,0,0,1,49,54ZM22,15a1,1,0,0,0-1-1H15a1,1,0,0,0-1,1v6a1,1,0,0,0,1,1h6a1,1,0,0,0,1-1V15Zm27,0H27a1,1,0,1,0,0,2H49A1,1,0,1,0,49,15ZM26,20a1,1,0,0,0,1,1H41a1,1,0,0,0,0-2H27A1,1,0,0,0,26,20Zm24,7a1,1,0,0,0-1-1H15a1,1,0,0,0-1,1V49a1,1,0,0,0,1,1H49a1,1,0,0,0,1-1V27Z"/>
</svg>
